X:1
T:Puttering About Harmony
C:c. 1999 Jim Thompson
N:Flute part for Kaubells tune ``Puttering About''
R:Reel
E:24
M:C
K:D
|: f4 e4 | defg f4 | =f4 =c2f2 | g=fef g4 |
a2=c'2 d'2b2 | =c'2b2 a3g | f2a2 b2c'2 | ^g4 b4 :|
E:20
|: a4 agfg | a4 agfg | g4 g=fef | g4 g=fef |
a4 agfg | a2c2 c4 | d2g2 b3d | e8 :|
\bigskip
